static/fa/svgs/solid/scissors.svg

<svg xmlns="http://www.w3.org/2000/svg" viewBox="0 0 512 512"><!--! Font Awesome Free 6.1.1 by @fontawesome - https://fontawesome.com License - https://fontawesome.com/license/free (Icons: CC BY 4.0, Fonts: SIL OFL 1.1, Code: MIT License) Copyright 2022 Fonticons, Inc.--><path d="M396.8 51.2c28.3-28.28 74.1-28.28 102.4 0 7.1 7.07 7.1 18.53 0 25.6L216.5 359.5c4.8 12.6 7.5 26.2 7.5 40.5 0 61.9-50.1 112-112 112C50.14 512 0 461.9 0 400s50.14-112.9 112-112.9c14.3 0 27.9 3.6 40.5 8.4l38.6-40.4-38.6-38.6c-12.6 4.8-26.2 7.5-40.5 7.5C50.14 224 0 173.9 0 112 0 50.14 50.14 0 112 0c61.9 0 112 50.14 112 112 0 14.3-2.7 27.9-7.5 40.5l38.6 38.6L396.8 51.2zM160 111.1c0-25.61-21.5-48-48-48-26.51 0-48 22.39-48 48 0 27.4 21.49 48 48 48 26.5 0 48-20.6 48-48zM112 448c26.5 0 48-21.5 48-48s-21.5-48-48-48c-26.51 0-48 21.5-48 48s21.49 48 48 48zm166.6-105.4 64-64 156.6 156.6c7.1 7.1 7.1 18.5 0 25.6-28.3 28.3-74.1 28.3-102.4 0L278.6 342.6z"/></svg>

<svg xmlns="http://www.w3.org/2000/svg" viewBox="0 0 512 512"><!--! Font Awesome Free 6.1.1 by @fontawesome - https://fontawesome.com License - https://fontawesome.com/license/free (Icons: CC BY 4.0, Fonts: SIL OFL 1.1, Code: MIT License) Copyright 2022 Fonticons, Inc. --><path d="M396.8 51.2C425.1 22.92 470.9 22.92 499.2 51.2C506.3 58.27 506.3 69.73 499.2 76.8L216.5 359.5C221.3 372.1 224 385.7 224 400C224 461.9 173.9 512 112 512C50.14 512 0 461.9 0 400C0 338.1 50.14 287.1 112 287.1C126.3 287.1 139.9 290.7 152.5 295.5L191.1 255.1L152.5 216.5C139.9 221.3 126.3 224 112 224C50.14 224 0 173.9 0 112C0 50.14 50.14 0 112 0C173.9 0 224 50.14 224 112C224 126.3 221.3 139.9 216.5 152.5L255.1 191.1L396.8 51.2zM160 111.1C160 85.49 138.5 63.1 112 63.1C85.49 63.1 64 85.49 64 111.1C64 138.5 85.49 159.1 112 159.1C138.5 159.1 160 138.5 160 111.1zM112 448C138.5 448 160 426.5 160 400C160 373.5 138.5 352 112 352C85.49 352 64 373.5 64 400C64 426.5 85.49 448 112 448zM278.6 342.6L342.6 278.6L499.2 435.2C506.3 442.3 506.3 453.7 499.2 460.8C470.9 489.1 425.1 489.1 396.8 460.8L278.6 342.6z"/></svg>
